X: 1
T: Doon, The
M: 4/4
L: 1/8
R: reel
K: Dmaj
|: DFAF BFAF | DEFD E3F | DFAF BFAF | (3Bcd ec dBAF |
DFAF BFAF | DEFD E3F | DFAF BFAF | (3Bcd ec d2AF :|
|: d2fd Adfd | d2fd edBA | d2fd Adfd | g2fg edBA |
d2fd Adfd | d2fd e3f | gefd ecdA | BABc dBAF :|
